X: 189
T:Mountains of Pomeroy, The
M:4/4
L:1/8
Q:120
K:G
Bc|d3 B dcBA|G2 A2 E2 GE| D2 EF G2 AB|c3 B c2 Bc|
d3 B dcBA|G2 A2 E2 GE| D2 DE G3 A|G6 GA||
B3 A G2 AB|c2 d2 d2 ge|d2 BA G2 AB|c6 Bc|
d3 B dcBA|G2 A2 E2 GE|D2 DE G3 A|G4|]

